X:381
T:Acano mlada nevesto
Z:Jack Campin, http://www.campin.me.uk/
F:Jack Campin's Nine-Note Tunebook
% last edit 03-02-2013
S:Ralph B. Iverson
Z:http://voluntocracy.org/Music
O:Vardar, Macedonia
M:11/8
L:1/8
Q:3/8=120
K:DPhr % actually hijaz
|:D3  d2 d2 c2B2| A2G G2^FG A4 :|
|:G2G c2 B2 A2G2|^F2E E2DE  F2ED|
  G2G c2 B2 A2G2|^F2A GFED  D4 :|
|:DEC DE^FG ABAG| ABc BABG  ADDD|
  DEC DE^FG ABAG|^FGA GFED  D4 :|

